packages/components/src/components/icon/common/ic-zingpay.svg

<svg width="64" height="40" viewBox="0 0 64 40" fill="none" xmlns="http://www.w3.org/2000/svg">
<path d="M40.1546 15.73C40.3461 15.73 40.5368 15.751 40.7238 15.7921C40.9163 15.834 41.107 15.8869 41.2931 15.9508H43.4898V16.6277H42.0174V16.6697C42.178 16.8539 42.3048 17.0665 42.3915 17.2955C42.4663 17.5236 42.5037 17.7626 42.5046 18.0034C42.5192 18.59 42.2756 19.1529 41.8377 19.5433C41.4254 19.9429 40.8725 20.1655 40.2978 20.1637C40.2978 20.1637 39.5798 20.1637 39.5287 20.2914C39.5287 20.2914 38.8564 20.8771 39.5287 21.1854C39.817 21.3104 40.1235 21.3907 40.4365 21.4208L40.5386 21.4272C40.6837 21.4372 40.8625 21.4573 41.0677 21.4573H41.2009C41.5248 21.4983 41.7501 21.4983 41.8888 21.4983C42.0922 21.5102 42.2902 21.5622 42.4736 21.6516C42.6651 21.7492 42.8385 21.8769 42.9872 22.032C43.1541 22.2053 43.29 22.406 43.3877 22.6268C43.4935 22.8859 43.5464 23.1632 43.5409 23.4433C43.5427 23.7608 43.4761 24.0755 43.3457 24.3665C43.2052 24.6657 42.9936 24.9257 42.7308 25.1255C42.4206 25.3563 42.074 25.5297 41.7045 25.6391C41.2301 25.7687 40.7384 25.8289 40.2467 25.8188C39.5114 25.8672 38.7779 25.7094 38.1275 25.3627C37.6677 25.0836 37.3977 24.5754 37.425 24.0381C37.4095 23.6084 37.6002 23.197 37.9377 22.9297C38.309 22.646 38.7624 22.4891 39.2304 22.4827V22.3914C39.1027 22.3449 38.9741 22.2929 38.8409 22.2318C38.715 22.1771 38.5973 22.1041 38.4915 22.0165C38.3802 21.9207 38.2899 21.8039 38.2251 21.6726C38.1485 21.5129 38.1129 21.3359 38.122 21.159C38.1248 20.9154 38.2078 20.6791 38.3583 20.4875C38.5544 20.2622 38.8008 20.0861 39.0772 19.9739V19.8708C38.7031 19.6847 38.3811 19.4101 38.1375 19.0708C37.9095 18.7387 37.7909 18.3446 37.7991 17.9414C37.7808 17.3411 38.0217 16.7609 38.4614 16.3513C38.9212 15.9289 39.5297 15.7063 40.1546 15.7309V15.73ZM40.493 22.8275C39.8517 22.791 39.2405 23.0994 39.2405 23.8538C39.2423 23.9697 39.2678 24.0846 39.3134 24.1914C39.3654 24.3136 39.4466 24.4212 39.5488 24.5052C39.672 24.6064 39.8152 24.6822 39.9694 24.7259C40.1792 24.7898 40.3981 24.819 40.6162 24.8126C40.9811 24.8299 41.3423 24.725 41.6425 24.5152C41.8915 24.2944 42.0384 23.9806 42.0475 23.6485C42.0676 23.4095 41.97 23.176 41.7857 23.0218C41.6033 22.9169 41.3962 22.8658 41.1854 22.8731C40.9546 22.8275 40.7238 22.8275 40.493 22.8275ZM27.9675 13.6564V15.4627L25.2161 21.4609H28.0186V22.9954H22.8871V22.3285L26.2379 15.4883H22.9792V13.6564H27.9666H27.9675ZM30.8868 16.0886V22.9954H29.0294V16.0895H30.8868V16.0886ZM35.3414 15.7291C35.9745 15.6844 36.5858 15.9672 36.9625 16.4781C36.9799 16.5082 36.9954 16.5392 37.0081 16.5711C37.2015 17.02 37.2791 17.5108 37.2344 17.997V22.9963H35.2438V18.2844C35.2484 17.9715 35.2529 17.4633 34.9154 17.3101C34.7922 17.2572 34.6581 17.2371 34.5249 17.2535C34.4109 17.2599 34.3005 17.2928 34.202 17.3511C33.8891 17.5509 33.8891 18.0992 33.8891 18.434V22.9954H31.8976V15.8331H33.8891V16.2436C34.296 15.9034 34.8105 15.7218 35.3414 15.73V15.7291ZM40.108 16.4781C39.9821 16.4754 39.859 16.5109 39.7541 16.5812C39.6492 16.656 39.5661 16.7563 39.5132 16.8731C39.4512 17.0072 39.4102 17.1486 39.3901 17.2946C39.3645 17.4606 39.3536 17.6294 39.3536 17.7972C39.3408 18.1284 39.4138 18.4568 39.5634 18.7515C39.6638 18.9695 39.8745 19.1136 40.1135 19.1255C40.3626 19.1282 40.5897 18.9841 40.6928 18.7569C40.8406 18.4705 40.9118 18.1503 40.8981 17.8283C40.9145 17.488 40.8433 17.1486 40.6928 16.843C40.5842 16.6186 40.3571 16.4772 40.1089 16.4781H40.108ZM29.9727 13.2304C30.2163 13.2313 30.448 13.3362 30.6095 13.5178L30.6824 13.6044C30.8184 13.786 30.8904 14.0077 30.8868 14.2357C30.8923 14.5067 30.791 14.7685 30.604 14.9646C30.4398 15.1498 30.2008 15.2529 29.9526 15.2474C29.71 15.2456 29.4782 15.1416 29.3168 14.9592C28.9519 14.5459 28.9519 13.9256 29.3168 13.5123L29.408 13.4302C29.5686 13.3034 29.7665 13.2331 29.9736 13.2295L29.9727 13.2304Z" fill="#474747"/>
<path d="M62 15.9395L59.3863 23.6354L59.2066 24.149L59.1345 24.3269C59.0406 24.555 58.9557 24.7484 58.8736 24.908C58.7514 25.1379 58.6072 25.3541 58.4421 25.5548L58.3199 25.6862C58.1474 25.8522 57.9431 25.9818 57.7187 26.0675C57.4112 26.1861 57.0837 26.2436 56.7544 26.2372C56.519 26.2372 56.2837 26.2208 56.051 26.1861H55.8659V24.8779L56.1231 24.919C56.2773 24.9427 56.4333 24.9536 56.5902 24.9491C56.8602 24.9692 57.1284 24.8889 57.3437 24.7238C57.5517 24.5167 57.6959 24.2548 57.7597 23.9693L57.8519 23.6454L55.1789 15.9796H57.2625L58.6173 21.2188L59.972 15.9796H61.6962L61.9981 15.9386L62 15.9395ZM52.506 15.8674C53.1655 15.84 53.8114 16.059 54.3177 16.4832C54.8295 16.9786 55.095 17.6765 55.0412 18.3871V23.4156H53.6655V22.9029C53.535 23.0397 53.3845 23.1583 53.2194 23.2513C52.8544 23.4557 52.4412 23.5579 52.0243 23.5497C51.7086 23.5497 51.3966 23.4894 51.1047 23.3699C50.8274 23.2541 50.5792 23.0789 50.3767 22.8563C50.1724 22.6419 50.0136 22.3892 49.9096 22.1128L49.8476 21.9249C49.7746 21.6731 49.7381 21.4113 49.74 21.1476C49.7327 20.7426 49.8275 20.3412 50.0173 19.9827C50.2143 19.6433 50.5099 19.3715 50.8639 19.2027C51.2698 19.002 51.7196 18.9053 52.1721 18.9199H53.6499V18.4072C53.6828 18.0879 53.5761 17.7704 53.358 17.535C53.1117 17.3353 52.797 17.2358 52.4804 17.2577C52.2177 17.2449 51.9568 17.3061 51.726 17.4329C51.5435 17.5506 51.4158 17.7339 51.3665 17.9456L51.3209 18.1052H49.9854V17.868C50.0072 17.2823 50.2891 16.7368 50.7553 16.381C51.2662 16.0225 51.8811 15.8428 52.505 15.8674H52.506ZM46.4822 14.1332C47.2951 14.0657 48.1033 14.3074 48.7456 14.8101L48.8715 14.9588C49.3112 15.518 49.5247 16.2269 49.4644 16.9402C49.4854 17.5168 49.3641 18.0897 49.1096 18.6079C48.8696 19.0567 48.4792 19.4079 48.0066 19.5977L47.7147 19.6834C47.2266 19.8121 46.7222 19.8732 46.2158 19.865V23.3033H44.2554V14.1332H46.4822ZM53.5131 20.26L52.3728 20.2755C52.1356 20.2509 51.9002 20.3476 51.7479 20.5319C51.611 20.7408 51.5453 20.9862 51.5572 21.2343C51.5353 21.5208 51.6211 21.8045 51.7989 22.0307L51.871 22.1028C52.0225 22.2378 52.2195 22.3126 52.4248 22.3126C52.7368 22.3126 53.0278 22.1584 53.2048 21.9021C53.421 21.6047 53.5295 21.2425 53.5131 20.8758V20.26ZM46.3445 15.6348L46.2158 15.6421V18.336C46.5461 18.3597 46.8754 18.2776 47.1555 18.0988C47.3936 17.8142 47.5021 17.442 47.452 17.0734C47.4876 16.6793 47.3799 16.2861 47.15 15.965C46.9019 15.7242 46.5598 15.6056 46.2158 15.6421L46.3445 15.6348Z" fill="#72C579"/>
<path d="M11.8078 25.3055C11.817 25.3302 11.8261 25.3539 11.8389 25.3767C11.8872 25.4898 11.9511 25.5956 12.0286 25.6896C12.0943 25.7808 12.1682 25.8648 12.2494 25.9414C12.4136 26.0946 12.5988 26.2242 12.7986 26.3264C12.9117 26.3802 13.0285 26.4267 13.1471 26.465C13.4472 26.3346 13.7701 26.2662 14.0967 26.2643C14.2956 26.2662 14.4936 26.2917 14.687 26.3419C15.4286 25.9377 15.8565 25.1295 15.7744 24.2893C15.8255 23.3223 15.1769 22.4583 14.2354 22.2366C14.0986 22.2549 13.9617 22.264 13.8249 22.2668C12.9163 22.2668 11.7002 21.9028 11.2587 21.0096C10.9868 20.4349 11.2587 19.7936 11.1209 19.1988C10.9877 18.6943 10.683 18.2537 10.2588 17.9517C9.88295 17.678 9.42955 17.5321 8.9652 17.5357C8.14233 17.5038 7.3815 17.9745 7.04396 18.7253C6.70551 19.477 6.85603 20.3583 7.42529 20.9531C7.80844 21.3727 8.33756 21.6282 8.90317 21.6665H9.17594C10.0572 21.6875 10.8801 22.1144 11.4037 22.8251C11.9274 23.5339 12.0943 24.4462 11.8544 25.2946L11.8088 25.3046L11.8078 25.3055Z" fill="#A8E2C1"/>
<path d="M6.39977 24.9968C6.37787 24.8672 6.36328 24.7377 6.35872 24.6063V24.5142C6.35598 23.5153 6.88327 22.5893 7.74355 22.0821H7.76909C8.186 21.8476 8.65582 21.7236 9.13476 21.7226C9.3756 21.7226 9.39658 21.5794 9.62191 21.636C10.4703 21.3632 11.0752 20.6133 11.1618 19.7266C11.1764 19.1427 10.9429 18.5799 10.5169 18.1794C10.0917 17.778 9.51609 17.5773 8.93406 17.6275C7.72986 17.6776 6.79478 18.6921 6.8404 19.8963C6.91794 20.8058 6.49829 21.6871 5.74202 22.1998C4.9675 22.6158 4.06983 22.3129 3.32085 22.8265C2.51532 23.3291 2.12851 24.2952 2.36388 25.2148C2.59924 26.1344 3.40113 26.7967 4.34898 26.8523C5.29683 26.9071 6.17079 26.3442 6.51198 25.4584C6.46272 25.3079 6.4244 25.1537 6.39977 24.9968Z" fill="#93D9E5"/>
<path d="M18.7511 27.0027C18.2038 27.0446 17.6564 26.927 17.1756 26.6642C16.7898 26.4745 16.4659 26.1789 16.2415 25.8122C15.9486 25.3661 15.7926 24.8433 15.7945 24.3087C15.7954 23.9995 15.8483 23.693 15.9496 23.401C15.4733 22.5252 14.458 22.0928 13.4983 22.3556C12.5377 22.6192 11.8836 23.5087 11.921 24.504C11.9064 25.3296 12.3871 26.084 13.1425 26.4179C13.3888 26.3258 13.6488 26.2719 13.9115 26.2592C15.1997 26.1734 16.3272 27.1122 16.4778 28.3939C16.5964 29.0142 16.4778 29.6711 16.8272 30.2613C17.2194 30.9391 17.942 31.357 18.7247 31.3597C19.8906 31.3031 20.8047 30.3425 20.8047 29.1757C20.8047 28.0098 19.8906 27.0492 18.7247 26.9926L18.7511 27.0027Z" fill="#A8E2C1"/>
<path d="M8.96505 17.3862C8.38393 17.4465 7.79734 17.3434 7.27187 17.0888C6.90696 16.8745 6.60591 16.5661 6.39882 16.1957C6.31398 16.0206 6.25742 15.8336 6.23005 15.642C6.12241 15.1676 6.12241 14.675 6.23005 14.1997C5.84234 13.157 4.73302 12.574 3.6538 12.845C2.57549 13.1159 1.87396 14.155 2.02539 15.2561C2.17683 16.3581 3.13289 17.17 4.24404 17.1399C4.77224 17.1071 5.29771 17.2339 5.75294 17.5048C6.07223 17.6928 6.33861 17.9592 6.52837 18.2794C6.97903 19.0484 6.65061 19.8549 7.11222 20.6193C7.61671 21.4586 8.61565 21.8646 9.56258 21.6119C10.5086 21.3592 11.1737 20.5108 11.1919 19.5319C11.181 18.9517 10.941 18.3998 10.5232 17.9975C10.1054 17.5952 9.54525 17.3753 8.96505 17.3862Z" fill="#93D9E5"/>
<path d="M8.80084 8.00155C7.81012 8.02709 6.96444 8.72224 6.74823 9.68925C6.66065 10.1518 6.6716 10.6289 6.5895 11.0905C6.52746 11.4819 6.3742 11.8522 6.14248 12.1734C5.90803 12.4945 5.56228 12.7153 5.17274 12.7937C4.83155 12.8211 4.48853 12.8211 4.14643 12.7937C3.0809 12.812 2.18414 13.5965 2.02449 14.6502C1.86575 15.7039 2.49248 16.7183 3.50511 17.0485C4.5086 17.3569 5.59147 16.9309 6.11694 16.0222C6.16255 15.9401 6.19448 15.8526 6.20908 15.7604C6.22732 15.6391 6.22732 15.5168 6.20908 15.3955C6.11876 14.8545 6.18171 14.298 6.3888 13.7899C6.60318 13.279 7.00276 12.8685 7.50724 12.6404C8.16955 12.3576 8.93951 12.4762 9.62189 12.2345C10.4338 11.9198 10.9812 11.1544 11.0177 10.285C11.0496 9.68104 10.8279 9.0908 10.4064 8.65747C9.98315 8.22414 9.39929 7.98604 8.79446 8.00063H8.79993L8.80084 8.00155Z" fill="#93D9E5"/>
<path d="M18.6176 17.4445C17.4116 17.4755 16.4592 18.4763 16.4875 19.6814C16.5221 20.2096 16.3963 20.735 16.129 21.1903C15.9356 21.5068 15.6701 21.7723 15.3535 21.9657C14.5781 22.4173 13.6804 22.1144 12.9159 22.576C12.2454 23.0185 11.865 23.7875 11.9206 24.5885C11.9754 25.3895 12.4589 26.0992 13.1832 26.445C13.4733 26.3264 13.7835 26.2662 14.0964 26.2652C14.3883 26.2652 14.6766 26.32 14.9485 26.4249C15.39 26.2151 15.7513 25.8648 15.9748 25.4287C15.8352 25.0866 15.7641 24.7208 15.765 24.3522C15.7303 23.2073 16.4364 22.1719 17.5138 21.786C17.7081 21.7176 17.9134 21.6847 18.1195 21.6884H18.2016C18.7335 21.7778 19.279 21.7157 19.7771 21.5087C20.4632 21.1054 20.8782 20.3647 20.8646 19.5692C20.8491 18.989 20.6027 18.4389 20.1813 18.0411C19.7598 17.6424 19.1969 17.4281 18.6176 17.4445Z" fill="#A8E2C1"/>
<path d="M15.8053 24.2986C15.8053 23.9601 15.8683 23.6235 15.9905 23.3079C15.5764 22.6538 14.8502 22.2642 14.0757 22.2816C13.9416 22.287 13.8084 22.3025 13.6761 22.3272C13.5466 22.3555 13.4197 22.3929 13.2966 22.4412C13.1771 22.4914 13.0621 22.5516 12.9527 22.62C12.8432 22.6866 12.7428 22.7642 12.6498 22.8517C12.5531 22.9366 12.4655 23.0314 12.388 23.1336C12.3095 23.2349 12.242 23.3434 12.1827 23.4566C12.1207 23.5697 12.0696 23.6883 12.0285 23.8105C11.9911 23.9382 11.9638 24.0687 11.9464 24.201C11.9464 24.3862 11.9464 24.575 11.9154 24.7602C11.9127 24.8478 11.9036 24.9354 11.8899 25.022C11.878 25.105 11.8607 25.1871 11.8388 25.2683C11.7868 25.4307 11.7211 25.5885 11.6436 25.7409C11.5925 25.8422 11.5359 25.9416 11.4748 26.0383C10.9949 26.8621 10.0973 27.352 9.14484 27.3109C9.00527 27.3064 8.8666 27.2945 8.72885 27.2744C8.57832 27.3173 8.43418 27.3775 8.29826 27.4541C7.62135 27.8647 7.21539 28.6036 7.2309 29.3945C7.26009 30.6152 8.27454 31.5813 9.49607 31.5521C10.7185 31.522 11.6837 30.5075 11.6536 29.286C11.6226 28.8663 11.6746 28.444 11.8087 28.0453C12.0851 26.9925 13.0402 26.2618 14.1277 26.2691C14.457 26.2691 14.7836 26.3357 15.0874 26.4643C15.5116 26.2563 15.8583 25.9179 16.0772 25.4991C15.8966 25.1251 15.8035 24.7146 15.8053 24.2986Z" fill="#81D9B9"/>
<path d="M13.8558 26.2641C14.9269 26.2641 15.7952 25.3704 15.7952 24.268C15.7952 23.1656 14.9269 22.272 13.8558 22.272C12.7846 22.272 11.9163 23.1656 11.9163 24.268C11.9163 25.3704 12.7846 26.2641 13.8558 26.2641Z" fill="#81D9B9"/>
<path d="M9.99145 27.2085C9.74058 27.2787 9.4815 27.3152 9.2215 27.3161H9.11932C7.57576 27.3052 6.33233 26.0481 6.33781 24.5045V24.4635V24.3814V24.1551C6.34328 24.0821 6.35331 24.011 6.36882 23.9398C6.38342 23.8486 6.4044 23.7574 6.42995 23.668C6.02581 22.9436 5.25311 22.5021 4.42295 22.524C3.62106 22.5103 2.87573 22.9372 2.48163 23.6369C2.08753 24.3367 2.10943 25.1951 2.53637 25.8747C2.96514 26.5535 3.73053 26.9439 4.53151 26.8901C5.06975 26.8545 5.60525 26.9795 6.07051 27.2495C6.40988 27.4256 6.69907 27.6829 6.91254 27.9994C7.37415 28.7739 7.06671 29.6716 7.53836 30.4361C7.96712 31.0984 8.71063 31.488 9.49883 31.4624C10.5972 31.4624 11.5232 30.6414 11.6536 29.5503C11.785 28.4592 11.0789 27.4429 10.0115 27.1829L9.99145 27.2085Z" fill="#93D9E5"/>
<path d="M11.6536 29.2548C11.6226 28.2759 10.9429 27.4366 9.99143 27.2021H9.9294C9.8628 27.2021 9.79164 27.2332 9.72414 27.2487H9.1193C8.98702 27.2468 8.85474 27.2359 8.72429 27.2177C8.57467 27.2578 8.43236 27.3162 8.29826 27.3928C7.62135 27.8033 7.21539 28.5423 7.2309 29.3323C7.24367 30.0375 7.60949 30.6889 8.20612 31.0665L8.29278 31.1231C8.39678 31.187 8.50625 31.2408 8.6212 31.2818H8.67229C8.78085 31.3183 8.8885 31.3439 8.99614 31.3694H9.09376C9.2233 31.3822 9.35375 31.3822 9.4833 31.3694C10.6537 31.3539 11.608 30.4252 11.6545 29.2557L11.6536 29.2548Z" fill="#81D9B9"/>
<path d="M9.00082 21.676C10.2055 21.676 11.1821 20.7157 11.1821 19.5312C11.1821 18.3467 10.2055 17.3865 9.00082 17.3865C7.79616 17.3865 6.81958 18.3467 6.81958 19.5312C6.81958 20.7157 7.79616 21.676 9.00082 21.676Z" fill="#81D9B9"/>
</svg>

<svg width="64" height="40" fill="none" xmlns="http://www.w3.org/2000/svg"><path d="M40.155 15.73c.191 0 .382.021.569.062.192.042.383.095.57.159h2.196v.677h-1.473v.042c.161.184.288.396.374.625.075.229.113.468.114.708a1.996 1.996 0 0 1-.667 1.54c-.413.4-.965.623-1.54.62 0 0-.718 0-.77.128 0 0-.672.586 0 .894.289.125.596.206.909.236l.102.006c.145.01.323.03.529.03h.133c.324.041.55.041.688.041.203.012.401.064.585.154.191.097.365.225.513.38.167.173.303.374.4.595.106.259.16.536.154.816.002.318-.065.633-.195.923-.14.3-.352.56-.615.76-.31.23-.657.404-1.026.513-.475.13-.967.19-1.458.18a3.952 3.952 0 0 1-2.12-.456c-.46-.28-.73-.788-.702-1.325-.015-.43.175-.841.513-1.108.371-.284.824-.44 1.292-.447v-.092a5.17 5.17 0 0 1-.39-.16 1.463 1.463 0 0 1-.349-.215 1.09 1.09 0 0 1-.266-.343 1.063 1.063 0 0 1-.103-.514c.003-.244.086-.48.236-.671.196-.226.443-.402.72-.514v-.103a2.56 2.56 0 0 1-.94-.8 1.925 1.925 0 0 1-.339-1.13c-.018-.6.223-1.18.662-1.59a2.364 2.364 0 0 1 1.694-.62v-.001Zm.338 7.098c-.641-.037-1.253.271-1.253 1.026.002.116.028.23.073.337.052.123.134.23.236.314.123.101.266.177.42.22.21.065.43.094.647.088.365.017.726-.088 1.026-.298.25-.22.396-.534.405-.867a.736.736 0 0 0-.261-.626 1.123 1.123 0 0 0-.6-.149c-.231-.046-.462-.046-.693-.046Zm-12.526-9.172v1.807l-2.75 5.998h2.802v1.534h-5.132v-.667l3.35-6.84H22.98v-1.832h4.988Zm2.92 2.433v6.906h-1.858V16.09h1.858v-.001Zm4.454-.36a1.852 1.852 0 0 1 1.621.75c.018.03.033.06.046.092.194.449.271.94.226 1.426v5h-1.99v-4.713c.004-.313.009-.82-.329-.974a.754.754 0 0 0-.39-.056.71.71 0 0 0-.323.097c-.313.2-.313.748-.313 1.083v4.561h-1.991v-7.162h1.991v.41c.407-.34.921-.521 1.452-.513Zm4.767.75a.61.61 0 0 0-.354.102.727.727 0 0 0-.24.292 1.484 1.484 0 0 0-.124.422 3.303 3.303 0 0 0-.036.502c-.013.331.06.66.21.954a.64.64 0 0 0 .55.374.628.628 0 0 0 .579-.368c.148-.287.219-.607.205-.929.016-.34-.055-.68-.205-.985a.646.646 0 0 0-.584-.365h-.001ZM29.973 13.23c.243.001.475.106.637.288l.072.086c.136.182.208.404.205.632.005.27-.096.532-.283.729a.846.846 0 0 1-.651.282.857.857 0 0 1-.636-.288 1.093 1.093 0 0 1 0-1.447l.091-.082a.937.937 0 0 1 .566-.2h-.001Z" fill="#474747"/><path d="m62 15.94-2.614 7.695-.18.514-.072.178a7.776 7.776 0 0 1-.26.581c-.123.23-.267.446-.432.647l-.122.131a1.785 1.785 0 0 1-.601.381 2.542 2.542 0 0 1-.965.17 4.77 4.77 0 0 1-.703-.05h-.185v-1.31l.257.042c.154.024.31.035.467.03.27.02.538-.06.754-.225.208-.207.352-.47.416-.755l.092-.324-2.673-7.665h2.084l1.354 5.239 1.355-5.24h1.724l.302-.04H62Zm-9.494-.073a2.649 2.649 0 0 1 1.812.616c.512.496.777 1.194.723 1.904v5.029h-1.375v-.513c-.131.137-.281.255-.447.348a2.352 2.352 0 0 1-1.195.299c-.315 0-.627-.06-.92-.18a2.054 2.054 0 0 1-.727-.514 2.202 2.202 0 0 1-.467-.743l-.062-.188a2.721 2.721 0 0 1-.108-.777 2.398 2.398 0 0 1 .277-1.165c.197-.34.493-.611.847-.78.406-.201.856-.298 1.308-.283h1.478v-.513a1.115 1.115 0 0 0-.292-.872c-.246-.2-.561-.3-.878-.277a1.423 1.423 0 0 0-.754.175.832.832 0 0 0-.36.513l-.045.16h-1.336v-.238a1.962 1.962 0 0 1 .77-1.487 2.85 2.85 0 0 1 1.75-.514h.001Zm-6.024-1.734a3.237 3.237 0 0 1 2.264.677l.125.149c.44.559.654 1.268.593 1.981.021.577-.1 1.15-.354 1.668-.24.449-.63.8-1.103.99l-.292.085c-.488.13-.993.19-1.5.182v3.438h-1.96v-9.17h2.227Zm7.031 6.127-1.14.015a.717.717 0 0 0-.625.257 1.176 1.176 0 0 0-.19.702c-.023.287.063.57.24.797l.073.072c.151.135.348.21.554.21a.948.948 0 0 0 .78-.41c.216-.298.325-.66.308-1.027v-.616Zm-7.169-4.625-.128.007v2.694c.33.024.66-.058.94-.237.238-.285.346-.657.296-1.026a1.65 1.65 0 0 0-.302-1.108c-.248-.24-.59-.36-.934-.323l.128-.007Z" fill="#72C579"/><path d="M11.808 25.305a1.286 1.286 0 0 0 .22.384c.066.092.14.176.221.252.165.154.35.283.55.385.113.054.23.1.348.139.3-.13.623-.199.95-.2.199.001.397.027.59.077a2.105 2.105 0 0 0 1.087-2.053 2 2 0 0 0-1.539-2.052 3.656 3.656 0 0 1-.41.03c-.909 0-2.125-.364-2.566-1.257-.272-.575 0-1.216-.138-1.811a2.228 2.228 0 0 0-.862-1.247 2.17 2.17 0 0 0-1.294-.416 2.02 2.02 0 0 0-1.54 3.417c.383.42.913.675 1.478.713h.273a2.852 2.852 0 0 1 2.678 3.628l-.045.01-.001.002Z" fill="#A8E2C1"/><path d="M6.4 24.997a2.951 2.951 0 0 1-.041-.39v-.093a2.815 2.815 0 0 1 1.385-2.432h.025a2.797 2.797 0 0 1 1.366-.36c.24 0 .262-.143.487-.086a2.233 2.233 0 0 0 1.54-1.91 2.052 2.052 0 0 0-2.228-2.098 2.186 2.186 0 0 0-2.094 2.268c.078.91-.342 1.791-1.098 2.304-.774.416-1.672.113-2.421.627a2.181 2.181 0 1 0 3.191 2.632 2.961 2.961 0 0 1-.112-.462Z" fill="#93D9E5"/><path d="M18.751 27.003a2.834 2.834 0 0 1-1.575-.339 2.27 2.27 0 0 1-.934-.852 2.722 2.722 0 0 1-.448-1.503c.001-.31.054-.616.156-.908a2.146 2.146 0 0 0-4.029 1.103 2.052 2.052 0 0 0 1.222 1.914 2.55 2.55 0 0 1 .768-.159 2.422 2.422 0 0 1 2.567 2.135c.118.62 0 1.277.35 1.867a2.2 2.2 0 0 0 1.897 1.099 2.185 2.185 0 0 0 0-4.367l.026.01Z" fill="#A8E2C1"/><path d="M8.965 17.386a3.14 3.14 0 0 1-1.693-.297 2.384 2.384 0 0 1-.873-.893 1.88 1.88 0 0 1-.169-.554 3.261 3.261 0 0 1 0-1.442 2.18 2.18 0 1 0-1.986 2.94 2.63 2.63 0 0 1 1.509.365c.32.188.586.454.775.774.451.77.123 1.576.584 2.34a2.196 2.196 0 0 0 4.08-1.087 2.186 2.186 0 0 0-2.227-2.146Z" fill="#93D9E5"/><path d="M8.8 8.002a2.16 2.16 0 0 0-2.052 1.687c-.087.463-.076.94-.159 1.402a2.526 2.526 0 0 1-.447 1.082c-.234.322-.58.542-.97.62a6.417 6.417 0 0 1-1.026 0 2.181 2.181 0 0 0-.641 4.255 2.253 2.253 0 0 0 2.612-1.026.794.794 0 0 0 .092-.262 1.224 1.224 0 0 0 0-.364 2.964 2.964 0 0 1 .18-1.606c.214-.511.614-.921 1.118-1.15.663-.282 1.433-.164 2.115-.405a2.189 2.189 0 0 0 1.396-1.95 2.17 2.17 0 0 0-2.224-2.284H8.8Z" fill="#93D9E5"/><path d="M18.618 17.445a2.186 2.186 0 0 0-2.13 2.236 2.64 2.64 0 0 1-.359 1.51 2.334 2.334 0 0 1-.776.775c-.775.451-1.673.148-2.437.61a2.227 2.227 0 0 0 .267 3.869 2.366 2.366 0 0 1 1.765-.02 2.23 2.23 0 0 0 1.027-.996 2.831 2.831 0 0 1-.21-1.077 2.64 2.64 0 0 1 1.749-2.566c.194-.068.4-.101.605-.098h.083c.531.09 1.077.028 1.575-.18a2.205 2.205 0 0 0 1.088-1.939 2.182 2.182 0 0 0-2.247-2.124Z" fill="#A8E2C1"/><path d="M15.805 24.299c0-.339.063-.675.186-.991a2.207 2.207 0 0 0-3.038-.688c-.11.067-.21.144-.303.232a2.166 2.166 0 0 0-.467.605 2.183 2.183 0 0 0-.155.354 2.59 2.59 0 0 0-.082.39c0 .185 0 .374-.03.56a2.09 2.09 0 0 1-.026.261c-.012.083-.03.165-.051.246-.052.163-.118.32-.195.473-.052.101-.108.2-.17.297a2.569 2.569 0 0 1-2.33 1.273 3.705 3.705 0 0 1-.415-.037c-.15.043-.295.104-.43.18a2.218 2.218 0 0 0-1.068 1.94 2.212 2.212 0 1 0 4.423-.108c-.031-.42.02-.842.155-1.24a2.381 2.381 0 0 1 2.319-1.777c.329 0 .656.067.96.195a2.22 2.22 0 0 0 .99-.965 2.733 2.733 0 0 1-.273-1.2Z" fill="#81D9B9"/><path d="M13.856 26.264c1.07 0 1.94-.894 1.94-1.996 0-1.102-.87-1.996-1.94-1.996-1.071 0-1.94.894-1.94 1.996 0 1.102.869 1.996 1.94 1.996Z" fill="#81D9B9"/><path d="M9.991 27.209c-.25.07-.51.106-.77.107H9.12a2.801 2.801 0 0 1-2.781-2.811v-.35a1.55 1.55 0 0 1 .03-.215c.015-.091.036-.183.062-.272a2.231 2.231 0 0 0-2.007-1.144 2.185 2.185 0 1 0 .109 4.366 2.709 2.709 0 0 1 1.539.36c.339.176.628.433.842.75.461.774.154 1.672.625 2.436a2.249 2.249 0 0 0 1.96 1.026 2.17 2.17 0 0 0 .514-4.28l-.02.027Z" fill="#93D9E5"/><path d="M11.654 29.255a2.186 2.186 0 0 0-1.663-2.053H9.93c-.066 0-.137.031-.205.047H9.12a3.195 3.195 0 0 1-.395-.031 1.79 1.79 0 0 0-.426.175 2.217 2.217 0 0 0-1.067 1.94c.013.705.378 1.356.975 1.734l.087.056c.104.064.213.118.328.159h.051c.109.036.216.062.324.087h.098c.13.013.26.013.39 0a2.202 2.202 0 0 0 2.17-2.113v-.001ZM9 21.676c1.206 0 2.182-.96 2.182-2.145 0-1.184-.976-2.144-2.181-2.144s-2.181.96-2.181 2.144c0 1.185.976 2.145 2.18 2.145Z" fill="#81D9B9"/></svg>
